;FLAVOR:Marlin
;TIME:5632
;Filament used: 2.91827m
;Layer height: 0.15
;MINX:70.417
;MINY:69.431
;MINZ:0.2
;MAXX:144.583
;MAXY:142.584
;MAXZ:4.7
;Generated with Cura_SteamEngine master
M140 S65
M105
M190 S65
M104 S205
M105
M109 S205
M82 ;absolute extrusion mode
; -- START GCODE --
G21                     ;set units to millimetres
G90                     ;set to absolute positioning
M106 S0                 ;set fan speed to zero (turned off)
G28 X0 Y0               ;move to the X/Y origin (Home)
G28 Z0                  ;move to the Z origin (Home)
G1 Z15.0 F1200          ;move Z to position 15.0 mm
G92 E0                  ;zero the extruded length
G1 E20 F200             ;extrude 20mm of feed stock
G92 E0                  ;zero the extruded length again
G1 F7200                ;set feedrate to 120 mm/s
; -- end of START GCODE --
G92 E0
G92 E0
G1 F1500 E-6.5
;LAYER_COUNT:31
;LAYER:0
M107
G0 F3600 X75.619 Y85.324 Z0.2
;TYPE:SKIRT
G1 F1500 E0
G1 F1200 X76.123 Y84.92 E0.02148
G1 X76.257 Y84.831 E0.02683
G1 X78.507 Y83.296 E0.11743
G1 X80.738 Y81.68 E0.20905
G1 X82.877 Y80.037 E0.29876
G1 X85.001 Y78.309 E0.38983
G1 X87.074 Y76.521 E0.48088
G1 X89.089 Y74.681 E0.57164
G1 X91.034 Y72.801 E0.66161
G1 X92.643 Y71.165 E0.73793
G1 X93.187 Y70.599 E0.76404
G1 X93.586 Y70.241 E0.78187
G1 X94.034 Y69.947 E0.79969
G1 X94.568 Y69.705 E0.81919
G1 X94.755 Y69.638 E0.8258
G1 X95.272 Y69.495 E0.84364
G1 X95.804 Y69.431 E0.86146
G1 X96.331 Y69.445 E0.879
G1 X99.144 Y69.729 E0.97303
G1 X101.865 Y69.926 E1.06377
G1 X104.593 Y70.046 E1.15459
G1 X107.325 Y70.089 E1.24547
G1 X110.057 Y70.054 E1.33634
G1 X112.778 Y69.944 E1.42692
G1 X115.483 Y69.756 E1.5171
G1 X117.281 Y69.581 E1.57719
G1 X117.308 Y69.58 E1.57809
G1 X118.655 Y69.446 E1.62311
G1 X119.191 Y69.432 E1.64094
G1 X119.723 Y69.499 E1.65878
G1 X120.386 Y69.693 E1.68175
G1 X120.879 Y69.903 E1.69958
G1 X121.335 Y70.185 E1.71741
G1 X121.769 Y70.554 E1.73636
G1 X121.953 Y70.739 E1.74503
G1 X123.588 Y72.427 E1.8232
G1 X125.542 Y74.333 E1.91398
G1 X127.537 Y76.175 E2.0043
G1 X129.599 Y77.97 E2.09522
G1 X131.681 Y79.684 E2.18492
G1 X133.866 Y81.38 E2.27692
G1 X136.068 Y82.99 E2.36764
G1 X138.285 Y84.52 E2.45724
G1 X138.458 Y84.634 E2.46413
G1 X138.893 Y84.93 E2.48163
G1 X139.313 Y85.264 E2.49947
G1 X139.678 Y85.656 E2.51729
G1 X140.078 Y86.261 E2.54141
G1 X140.318 Y86.741 E2.55926
G1 X140.531 Y87.478 E2.58478
G1 X140.603 Y88.149 E2.60722
G1 X140.739 Y90.13 E2.67327
G1 X141.005 Y92.854 E2.7643
G1 X141.344 Y95.554 E2.85481
G1 X141.765 Y98.268 E2.94615
G1 X142.257 Y100.948 E3.03678
G1 X142.822 Y103.599 E3.12693
G1 X143.466 Y106.255 E3.21783
G1 X144.186 Y108.886 E3.30856
G1 X144.278 Y109.195 E3.31928
G1 X144.451 Y109.813 E3.34062
G1 X144.556 Y110.338 E3.35843
G1 X144.583 Y110.874 E3.37628
G1 X144.504 Y111.574 E3.39971
G1 X144.38 Y112.096 E3.41756
G1 X144.181 Y112.594 E3.43539
G1 X143.897 Y113.075 E3.45397
G1 X143.666 Y113.404 E3.46734
G1 X142.453 Y115.072 E3.53594
G1 X140.931 Y117.295 E3.62555
G1 X139.434 Y119.62 E3.71752
G1 X138.033 Y121.937 E3.80757
G1 X136.695 Y124.299 E3.89786
G1 X135.414 Y126.718 E3.98891
G1 X134.216 Y129.14 E4.07878
G1 X133.067 Y131.645 E4.17044
G1 X132.983 Y131.838 E4.17744
G1 X132.709 Y132.444 E4.19956
G1 X132.453 Y132.915 E4.21739
G1 X132.129 Y133.342 E4.23522
G1 X131.64 Y133.81 E4.25773
G1 X131.211 Y134.133 E4.27559
G1 X130.739 Y134.388 E4.29344
G1 X130.15 Y134.592 E4.31417
G1 X127.533 Y135.253 E4.40394
G1 X124.917 Y135.992 E4.49436
G1 X122.295 Y136.814 E4.58575
G1 X119.74 Y137.696 E4.67565
G1 X117.191 Y138.656 E4.76624
G1 X114.642 Y139.7 E4.85786
G1 X112.175 Y140.793 E4.9476
G1 X110.397 Y141.64 E5.01311
G1 X110.379 Y141.647 E5.01375
G1 X109.691 Y141.977 E5.03913
G1 X109.177 Y142.226 E5.05813
G1 X108.677 Y142.421 E5.07598
G1 X108.154 Y142.541 E5.09382
G1 X107.46 Y142.584 E5.11695
G1 X106.924 Y142.554 E5.1348
G1 X106.399 Y142.445 E5.15264
G1 X105.87 Y142.246 E5.17144
G1 X105.588 Y142.114 E5.18179
G1 X103.538 Y141.117 E5.25761
G1 X101.067 Y140.001 E5.34779
G1 X98.571 Y138.955 E5.4378
G1 X98.563 Y138.953 E5.43808
G1 X95.975 Y137.957 E5.53031
G1 X93.434 Y137.059 E5.61995
G1 X90.831 Y136.222 E5.71089
G1 X88.206 Y135.459 E5.80181
G1 X86.208 Y134.94 E5.87047
G1 X86.175 Y134.929 E5.87163
G1 X85.595 Y134.78 E5.89154
G1 X85.454 Y134.746 E5.89637
G1 X84.864 Y134.596 E5.91661
G1 X84.356 Y134.426 E5.93443
G1 X83.878 Y134.181 E5.9523
G1 X83.313 Y133.766 E5.97561
G1 X82.921 Y133.399 E5.99347
G1 X82.589 Y132.978 E6.01131
G1 X82.299 Y132.464 E6.03094
G1 X82.124 Y132.082 E6.04491
G1 X81.315 Y130.262 E6.11115
G1 X80.133 Y127.795 E6.20214
G1 X78.91 Y125.414 E6.29117
G1 X77.574 Y122.987 E6.38331
G1 X76.204 Y120.658 E6.47318
G1 X74.74 Y118.32 E6.56493
G1 X73.246 Y116.08 E6.65449
G1 X71.642 Y113.815 E6.7468
G1 X71.135 Y113.12 E6.77541
G1 X70.852 Y112.664 E6.79326
G1 X70.64 Y112.172 E6.81108
G1 X70.471 Y111.445 E6.8359
G1 X70.444 Y111.229 E6.84314
G1 X70.417 Y110.693 E6.86099
G1 X70.47 Y110.159 E6.87884
G1 X70.576 Y109.71 E6.89419
G1 X71.276 Y107.244 E6.97945
G1 X71.956 Y104.561 E7.0715
G1 X72.547 Y101.916 E7.16165
G1 X73.065 Y99.247 E7.25207
G1 X73.509 Y96.556 E7.34279
G1 X73.875 Y93.855 E7.43344
G1 X74.163 Y91.174 E7.52313
G1 X74.317 Y89.23 E7.58799
G1 X74.321 Y89.202 E7.58893
G1 X74.424 Y87.832 E7.63462
G1 X74.504 Y87.302 E7.65245
G1 X74.662 Y86.789 E7.6703
G1 X74.967 Y86.172 E7.6932
G1 X75.262 Y85.724 E7.71104
G1 X75.619 Y85.324 E7.72887
G0 F3600 X75.939 Y85.573
G1 F1200 X76.345 Y85.253 E7.74606
G1 X76.451 Y85.183 E7.75029
G1 X78.745 Y83.618 E7.84265
G1 X80.971 Y82.006 E7.93406
G1 X83.132 Y80.346 E8.0247
G1 X85.266 Y78.61 E8.11619
G1 X87.342 Y76.819 E8.20739
G1 X89.336 Y74.999 E8.29718
G1 X91.334 Y73.067 E8.38962
G1 X92.912 Y71.462 E8.46448
G1 X93.475 Y70.876 E8.49151
G1 X93.853 Y70.541 E8.50831
G1 X94.279 Y70.269 E8.52512
G1 X94.89 Y70.015 E8.54713
G1 X95.378 Y69.882 E8.56395
G1 X95.88 Y69.828 E8.58074
G1 X96.291 Y69.843 E8.59442
G1 X99.111 Y70.128 E8.68869
G1 X101.855 Y70.326 E8.7802
G1 X104.568 Y70.446 E8.87052
G1 X107.324 Y70.489 E8.9622
G1 X110.078 Y70.454 E9.0538
G1 X112.789 Y70.344 E9.14404
G1 X115.51 Y70.155 E9.23476
G1 X117.319 Y69.979 E9.29521
G1 X117.346 Y69.979 E9.29611
G1 X118.694 Y69.844 E9.34117
G1 X119.2 Y69.834 E9.358
G1 X119.701 Y69.903 E9.37482
G1 X120.256 Y70.071 E9.39411
G1 X120.721 Y70.272 E9.41096
G1 X121.147 Y70.543 E9.42775
G1 X121.63 Y70.981 E9.44944
G1 X123.305 Y72.71 E9.52951
G1 X125.273 Y74.63 E9.62095
G1 X127.268 Y76.472 E9.71127
G1 X129.327 Y78.265 E9.80207
G1 X131.444 Y80.007 E9.89326
G1 X133.613 Y81.69 E9.98457
G1 X135.827 Y83.31 E10.07582
G1 X138.079 Y84.863 E10.1668
G1 X138.233 Y84.964 E10.17293
G1 X138.668 Y85.26 E10.19043
G1 X139.062 Y85.577 E10.20725
G1 X139.402 Y85.952 E10.22408
G1 X139.735 Y86.466 E10.24445
G1 X139.959 Y86.919 E10.26126
G1 X140.137 Y87.548 E10.283
G1 X140.204 Y88.182 E10.30421
G1 X140.341 Y90.163 E10.37025
G1 X140.608 Y92.907 E10.46195
G1 X140.95 Y95.628 E10.55316
G1 X141.369 Y98.33 E10.64411
G1 X141.859 Y100.997 E10.73429
G1 X142.428 Y103.671 E10.82522
G1 X143.08 Y106.358 E10.91719
G1 X143.805 Y109.008 E11.00857
G1 X143.893 Y109.302 E11.01877
G1 X144.066 Y109.92 E11.04012
G1 X144.163 Y110.416 E11.05693
G1 X144.181 Y110.922 E11.07377
G1 X144.109 Y111.511 E11.0935
G1 X143.99 Y112.003 E11.11034
G1 X143.796 Y112.469 E11.12713
G1 X143.375 Y113.123 E11.153
G1 X142.132 Y114.833 E11.22331
G1 X140.592 Y117.083 E11.314
G1 X139.105 Y119.392 E11.40534
G1 X137.686 Y121.738 E11.49653
G1 X136.351 Y124.094 E11.5866
G1 X135.063 Y126.526 E11.67813
G1 X133.839 Y129.003 E11.77003
G1 X132.701 Y131.483 E11.86078
G1 X132.619 Y131.673 E11.86766
G1 X132.345 Y132.279 E11.88978
G1 X132.101 Y132.722 E11.90661
G1 X131.79 Y133.121 E11.92343
G1 X131.376 Y133.509 E11.9423
G1 X130.971 Y133.811 E11.95911
G1 X130.523 Y134.046 E11.97593
G1 X130.052 Y134.205 E11.99247
G1 X127.398 Y134.875 E12.08351
G1 X124.793 Y135.611 E12.17354
G1 X122.192 Y136.427 E12.26421
G1 X119.574 Y137.33 E12.35632
G1 X117.065 Y138.275 E12.44549
G1 X114.493 Y139.328 E12.53793
G1 X112.003 Y140.432 E12.62852
G1 X110.225 Y141.279 E12.69402
G1 X110.203 Y141.287 E12.6948
G1 X109.003 Y141.865 E12.7391
G1 X108.532 Y142.047 E12.7559
G1 X108.037 Y142.153 E12.77274
G1 X107.453 Y142.184 E12.79219
G1 X106.948 Y142.154 E12.80901
G1 X106.455 Y142.044 E12.82581
G1 X105.806 Y141.775 E12.84918
G1 X103.712 Y140.757 E12.92662
G1 X101.224 Y139.633 E13.01742
G1 X98.706 Y138.579 E13.10821
G1 X96.135 Y137.589 E13.19985
G1 X93.552 Y136.677 E13.29096
G1 X90.959 Y135.843 E13.38155
G1 X88.312 Y135.074 E13.47323
G1 X86.308 Y134.553 E13.5421
G1 X86.276 Y134.542 E13.54322
G1 X84.963 Y134.208 E13.58829
G1 X84.484 Y134.045 E13.60511
G1 X84.037 Y133.809 E13.62193
G1 X83.564 Y133.454 E13.6416
G1 X83.196 Y133.107 E13.65842
G1 X82.888 Y132.706 E13.67524
G1 X82.506 Y131.955 E13.70326
G1 X81.677 Y130.092 E13.77108
G1 X80.489 Y127.611 E13.86257
G1 X79.269 Y125.236 E13.95138
G1 X79.26 Y125.222 E13.95193
G1 X77.918 Y122.782 E14.04455
G1 X76.528 Y120.422 E14.13565
G1 X75.079 Y118.107 E14.22649
G1 X73.562 Y115.832 E14.31743
G1 X71.995 Y113.62 E14.40759
G1 X71.458 Y112.884 E14.4379
G1 X71.193 Y112.453 E14.45472
G1 X70.999 Y111.986 E14.47154
G1 X70.868 Y111.395 E14.49168
G1 X70.841 Y111.179 E14.49892
G1 X70.818 Y110.674 E14.51573
G1 X70.92 Y109.973 E14.53929
G1 X70.961 Y109.82 E14.54456
G1 X71.663 Y107.347 E14.63006
G1 X72.339 Y104.683 E14.72148
G1 X72.945 Y101.967 E14.81403
G1 X73.458 Y99.324 E14.90358
G1 X73.901 Y96.637 E14.99415
G1 X74.27 Y93.919 E15.08538
G1 X74.564 Y91.172 E15.17727
G1 X74.716 Y89.262 E15.241
G1 X74.72 Y89.238 E15.24181
G1 X74.823 Y87.862 E15.2877
G1 X74.9 Y87.362 E15.30453
G1 X75.056 Y86.881 E15.32135
G1 X75.317 Y86.366 E15.34055
G1 X75.596 Y85.945 E15.35735
G1 X75.939 Y85.573 E15.37418
G1 F1500 E8.87418
;MESH:sunflower_mk1.stl
G0 F3600 X94.891 Y83.338
G0 X95.962 Y83.179
G0 X103.698 Y83.759
G0 X111.405 Y83.943
;TYPE:WALL-INNER
G1 F1500 E15.37418
G1 F1200 X112.061 Y82.454 E15.4283
G1 X112.159 Y82.252 E15.43576
G1 X112.833 Y80.977 E15.48373
G1 X113.553 Y79.8 E15.52962
G1 X114.386 Y78.612 E15.57788
G1 X115.3 Y77.458 E15.62684
G1 X116.275 Y76.368 E15.67548
G1 X116.34 Y76.297 E15.67869
G1 X117.777 Y74.884 E15.74572
G1 X117.812 Y74.852 E15.74729
G1 X118.503 Y74.26 E15.77756
G1 X118.772 Y74.03 E15.78933
G1 X118.83 Y74.379 E15.79596
G1 X118.983 Y75.299 E15.82698
G1 X119.177 Y77.323 E15.89461
G1 X119.227 Y78.888 E15.94669
G1 X119.188 Y80.364 E15.9958
G1 X119.063 Y81.78 E16.04308
G1 X118.86 Y83.151 E16.08917
G1 X118.557 Y84.561 E16.13714
G1 X118.499 Y84.79 E16.145
G1 X118.044 Y86.359 E16.19933
G1 X119.413 Y87.222 E16.25316
G1 X120.341 Y87.88 E16.29099
G1 X121.259 Y88.61 E16.33
G1 X122.142 Y89.393 E16.36926
G1 X122.927 Y90.169 E16.40597
G1 X124.027 Y91.379 E16.46036
G1 X125.495 Y90.658 E16.51476
G1 X125.702 Y90.564 E16.52232
G1 X127.044 Y90.019 E16.57049
G1 X128.347 Y89.584 E16.61618
G1 X129.737 Y89.211 E16.66405
G1 X131.172 Y88.918 E16.71276
G1 X132.713 Y88.696 E16.76454
G1 X134.789 Y88.533 E16.83381
G1 X135.689 Y88.524 E16.86374
G1 X135.69 Y88.523 E16.86379
G1 X136.042 Y88.521 E16.8755
G1 X135.863 Y88.825 E16.88213
G1 X135.406 Y89.6 E16.91205
G1 X134.231 Y91.313 E16.98114
G1 X133.262 Y92.543 E17.03322
G1 X132.295 Y93.633 E17.08169
G1 X132.253 Y93.677 E17.08371
G1 X131.275 Y94.653 E17.12967
G1 X130.235 Y95.573 E17.17585
G1 X130.195 Y95.606 E17.17757
G1 X129.099 Y96.457 E17.22372
G1 X128.922 Y96.585 E17.23099
G1 X127.56 Y97.497 E17.28551
G1 X128.052 Y99.036 E17.33925
G1 X128.343 Y100.149 E17.37751
G1 X128.572 Y101.268 E17.4155
G1 X128.745 Y102.43 E17.45457
G1 X128.851 Y103.555 E17.49216
G1 X128.916 Y105.19 E17.54658
G1 X130.498 Y105.579 E17.60077
G1 X130.733 Y105.644 E17.60888
G1 X132.043 Y106.066 E17.65465
G1 X132.101 Y106.086 E17.65669
G1 X133.38 Y106.59 E17.70241
G1 X134.625 Y107.171 E17.74811
G1 X134.691 Y107.203 E17.75055
G1 X135.975 Y107.897 E17.7991
G1 X137.286 Y108.71 E17.8504
G1 X139 Y109.934 E17.92045
G1 X139.684 Y110.498 E17.94994
G1 X139.957 Y110.723 E17.96171
G1 X139.623 Y110.84 E17.96834
G1 X138.744 Y111.15 E17.99934
G1 X136.747 Y111.702 E18.06825
G1 X135.256 Y112.015 E18.11893
G1 X133.81 Y112.228 E18.16754
G1 X133.729 Y112.238 E18.17025
G1 X132.372 Y112.358 E18.21556
G1 X130.98 Y112.393 E18.26188
G1 X129.534 Y112.338 E18.31001
G1 X129.319 Y112.323 E18.31717
G1 X127.69 Y112.147 E18.37167
G1 X127.077 Y113.642 E18.42541
G1 X126.584 Y114.682 E18.46369
G1 X126.031 Y115.704 E18.50234
G1 X125.43 Y116.681 E18.54049
G1 X124.779 Y117.626 E18.57866
G1 X123.784 Y118.912 E18.63274
G1 X124.753 Y120.235 E18.68728
G1 X124.87 Y120.406 E18.69417
G1 X125.652 Y121.654 E18.74316
G1 X126.299 Y122.844 E18.78821
G1 X126.913 Y124.16 E18.83651
G1 X127.446 Y125.514 E18.88491
G1 X127.933 Y126.992 E18.93667
G1 X128.458 Y129.025 E19.0065
G1 X128.621 Y129.9 E19.03611
G1 X128.685 Y130.248 E19.04787
G1 X128.354 Y130.124 E19.05451
G1 X127.517 Y129.81 E19.08424
G1 X125.605 Y128.94 E19.15411
G1 X124.246 Y128.21 E19.20542
G1 X123.011 Y127.452 E19.25362
G1 X121.807 Y126.61 E19.30248
G1 X120.738 Y125.76 E19.34791
G1 X119.666 Y124.79 E19.39599
G1 X119.497 Y124.626 E19.40382
G1 X118.372 Y123.453 E19.45788
G1 X116.953 Y124.199 E19.5112
G1 X115.879 Y124.691 E19.55049
G1 X114.819 Y125.109 E19.58839
G1 X113.736 Y125.471 E19.62637
G1 X112.606 Y125.781 E19.66534
G1 X111.033 Y126.124 E19.71889
G1 X110.923 Y127.758 E19.77336
G1 X110.904 Y127.969 E19.78041
G1 X110.714 Y129.345 E19.82661
G1 X110.703 Y129.41 E19.8288
G1 X110.428 Y130.765 E19.87479
G1 X110.074 Y132.087 E19.92031
G1 X110.057 Y132.145 E19.92232
G1 X109.594 Y133.537 E19.97111
G1 X109.022 Y134.971 E20.02246
G1 X108.14 Y136.823 E20.09068
G1 X108.125 Y136.852 E20.09177
G1 X107.674 Y137.65 E20.12226
G1 X107.5 Y137.958 E20.13402
G1 X107.326 Y137.65 E20.14066
G1 X106.882 Y136.863 E20.17071
G1 X105.982 Y134.978 E20.24018
G1 X105.409 Y133.546 E20.29148
G1 X104.944 Y132.146 E20.34055
G1 X104.927 Y132.088 E20.34256
G1 X104.571 Y130.762 E20.38822
G1 X104.298 Y129.412 E20.43403
G1 X104.287 Y129.346 E20.43626
G1 X104.095 Y127.967 E20.48257
G1 X104.077 Y127.759 E20.48951
G1 X103.967 Y126.124 E20.54402
G1 X102.394 Y125.781 E20.59756
G1 X101.264 Y125.471 E20.63654
G1 X100.181 Y125.109 E20.67452
G1 X99.121 Y124.691 E20.71241
G1 X98.047 Y124.199 E20.7517
G1 X96.628 Y123.453 E20.80503
G1 X95.503 Y124.626 E20.85908
G1 X95.333 Y124.791 E20.86696
G1 X94.263 Y125.759 E20.91495
G1 X93.193 Y126.61 E20.96042
G1 X91.99 Y127.451 E21.00924
G1 X90.754 Y128.21 E21.05749
G1 X89.398 Y128.938 E21.10868
G1 X87.494 Y129.805 E21.17826
G1 X86.645 Y130.124 E21.20842
G1 X86.315 Y130.247 E21.22014
G1 X86.379 Y129.9 E21.22676
G1 X86.542 Y129.02 E21.25653
G1 X87.065 Y126.993 E21.32616
G1 X87.554 Y125.514 E21.37797
G1 X88.088 Y124.157 E21.42647
G1 X88.692 Y122.864 E21.47394
G1 X89.357 Y121.639 E21.5203
G1 X90.118 Y120.425 E21.56795
G1 X90.255 Y120.224 E21.57604
G1 X91.215 Y118.913 E21.63009
G1 X90.222 Y117.626 E21.68415
G1 X89.569 Y116.681 E21.72236
G1 X88.969 Y115.704 E21.76049
G1 X88.416 Y114.682 E21.79914
G1 X87.923 Y113.642 E21.83742
G1 X87.31 Y112.147 E21.89116
G1 X85.673 Y112.325 E21.94593
G1 X85.472 Y112.339 E21.95263
G1 X84.008 Y112.394 E22.00136
G1 X82.627 Y112.358 E22.04731
G1 X81.272 Y112.238 E22.09255
G1 X81.197 Y112.23 E22.09506
G1 X79.758 Y112.017 E22.14344
G1 X78.243 Y111.7 E22.19492
G1 X76.231 Y111.143 E22.26436
G1 X75.375 Y110.84 E22.29456
G1 X75.042 Y110.723 E22.3063
G1 X75.314 Y110.499 E22.31291
G1 X75.315 Y110.498 E22.31296
G1 X75.999 Y109.935 E22.34242
G1 X77.713 Y108.711 E22.41247
G1 X79.025 Y107.897 E22.46383
G1 X80.323 Y107.196 E22.51289
G1 X81.625 Y106.587 E22.5607
G1 X82.897 Y106.087 E22.60616
G1 X82.955 Y106.066 E22.60821
G1 X84.283 Y105.639 E22.65461
G1 X84.491 Y105.581 E22.66179
G1 X86.084 Y105.19 E22.71634
G1 X86.149 Y103.555 E22.77077
G1 X86.254 Y102.44 E22.80802
G1 X86.426 Y101.279 E22.84705
G1 X86.657 Y100.149 E22.88541
G1 X86.948 Y99.036 E22.92368
G1 X87.44 Y97.497 E22.97742
G1 X86.089 Y96.592 E23.0315
G1 X85.896 Y96.453 E23.03941
G1 X84.806 Y95.607 E23.0853
G1 X84.766 Y95.574 E23.08703
G1 X83.725 Y94.654 E23.13324
G1 X82.702 Y93.63 E23.18138
G1 X81.738 Y92.543 E23.2297
